X: 33448
T: Rabbit, The
R: polka
M: 2/4
K: Gmajor
B/c/|{de}dB/c/ {de}dB/c/|{de}dB/d/ gB|Ad/d/ dd|d/e/d/B/ GB/c/|
{de}dB/c/ {de}dB/c/|{de}dB/d/ gB|Ad/d/ dB|GB G:|
|:c/d/|ee dB/d/|cA Ad/e/|ff ee|dB/B/ Bc/d/|
ee dB/d/|cA Ad/e/|f>e d/c/B/A/|GB G:|
|:z|Bg/f/ gg|z.f f2|A/B/c/d/ ee|z.d d2|
BG/A/ Bd|dA A2|f>e d/c/B/A/|GB G:|
|:B/c/|dB/A/ B/G/B/d/|dA AA/B/|cA/F/ A/F/A/c/|dB BB/c/|
dB/A/ B/G/B/d/|dA A2|f>e d/c/B/A/|GB G:|
|:z|Bg/f/ gg|z.f f2|A/B/c/d/ ee|z.d d2|
BG/A/ Bd|dA A2|f>e d/c/B/A/|GB G:|

